X:267
T:B267-  Labandala Shot
Q:1/4=120
M:3/4
L:1/4
K:Aphrygian
F/2G/2|A2B|G3/2F/2G|F3/2G/2F::\
_A/2B/2cc|B2B|z_AA|G3/2F/2G::\
D/2_E/2FF|F3/2_E/2 D/2E/2|FF=E|F3/2G/2F:|\
_E/2F/2GG|G3/2_A/2G|_A3/2B/2A||G2G|\
G/2_A/2BB|B2B|z_AA|G3/2F/2G|\
_A/2B/2cB|_A2B|G3/2F/2G|F/2=E/2F/2G/2_A/2B/2|\
ccB|_A2B|G3/2F/2G|=A3/2B/2A|]

